X:50
T:Y Ddafad Gorniog - The horned Ewe
M:C
L:1/8
Q:180
C:Trad. arr. Ceri Rhys Matthews
R:Ronde St. Vincent
N:Dorian mode arrangement
K:D
E>F G>A B2 B>d | c2 B2 A4 | E>F G>A B2 B> d|
c2 B2 A4 :||: B>G B2 A>F A2 | G>E E>G F2 F2 |
B>G B2 A>F A2 | G2 F2 E4 :||
